svg/aws-ec2-db.svg

<?xml version="1.0" encoding="UTF-8"?>
<svg xmlns="http://www.w3.org/2000/svg" xmlns:xlink="http://www.w3.org/1999/xlink" width="32" height="32" viewBox="0 0 32 32">
<path fill-rule="evenodd" fill="rgb(83.137255%, 35.686275%, 2.745098%)" fill-opacity="1" d="M 28.855469 28.0625 L 28.855469 19.898438 C 27.878906 20.367188 26.496094 20.59375 25.167969 20.59375 C 23.59375 20.59375 22.339844 20.371094 21.476562 19.96875 L 21.476562 28.0625 C 21.476562 28.425781 22.828125 29.570312 25.167969 29.570312 C 27.507812 29.570312 28.855469 28.425781 28.855469 28.0625 M 21.476562 18.238281 C 21.476562 18.664062 22.757812 19.257812 25.167969 19.257812 C 27.707031 19.257812 28.855469 18.472656 28.855469 18.234375 C 28.855469 18.019531 27.746094 17.332031 25.167969 17.332031 C 22.703125 17.332031 21.53125 17.980469 21.476562 18.238281 M 30.1875 18.234375 L 30.1875 28.0625 C 30.1875 29.574219 27.84375 30.902344 25.167969 30.902344 C 22.492188 30.902344 20.144531 29.574219 20.144531 28.0625 L 20.144531 18.234375 C 20.144531 16.585938 22.851562 16 25.167969 16 C 27.59375 16 30.1875 16.585938 30.1875 18.234375 M 18 23.332031 L 18 26.667969 L 16.667969 26.667969 L 16.667969 24 L 14.667969 24 L 14.667969 26.667969 L 13.332031 26.667969 L 13.332031 24 L 11.332031 24 L 11.332031 26.667969 L 10 26.667969 L 10 24 L 8 24 L 8 26.667969 L 6.667969 26.667969 L 6.667969 24 L 4.667969 24 C 4.492188 24 4.320312 23.929688 4.195312 23.804688 C 4.070312 23.679688 4 23.507812 4 23.332031 L 4 21.332031 L 1.332031 21.332031 L 1.332031 20 L 4 20 L 4 18 L 1.332031 18 L 1.332031 16.667969 L 4 16.667969 L 4 14.667969 L 1.332031 14.667969 L 1.332031 13.332031 L 4 13.332031 L 4 11.332031 L 1.332031 11.332031 L 1.332031 10 L 4 10 L 4 8 L 1.332031 8 L 1.332031 6.667969 L 4 6.667969 L 4 4.667969 C 4 4.296875 4.296875 4 4.667969 4 L 6.667969 4 L 6.667969 1.332031 L 8 1.332031 L 8 4 L 10 4 L 10 1.332031 L 11.332031 1.332031 L 11.332031 4 L 13.332031 4 L 13.332031 1.332031 L 14.667969 1.332031 L 14.667969 4 L 16.667969 4 L 16.667969 1.332031 L 18 1.332031 L 18 4 L 20 4 L 20 1.332031 L 21.332031 1.332031 L 21.332031 4 L 23.332031 4 C 23.703125 4 24 4.296875 24 4.667969 L 24 6.667969 L 26.667969 6.667969 L 26.667969 8 L 24 8 L 24 10 L 26.667969 10 L 26.667969 11.332031 L 24 11.332031 L 24 13.332031 L 26.667969 13.332031 L 26.667969 14.667969 L 23.332031 14.667969 C 22.964844 14.667969 22.667969 14.367188 22.667969 14 L 22.667969 5.332031 L 5.332031 5.332031 L 5.332031 22.667969 L 17.332031 22.667969 C 17.703125 22.667969 18 22.964844 18 23.332031 "/>
</svg>

<svg role="img" viewBox="0 0 32 32" xmlns="http://www.w3.org/2000/svg"><path d="M28.855 28.063v-8.165c-.976.47-2.359.696-3.687.696-1.574 0-2.828-.223-3.691-.625v8.093c0 .364 1.351 1.508 3.691 1.508s3.687-1.144 3.687-1.508m-7.378-9.824c0 .426 1.28 1.02 3.691 1.02 2.539 0 3.687-.785 3.687-1.024 0-.214-1.109-.902-3.687-.902-2.465 0-3.637.648-3.691.906m8.71-.004v9.828c0 1.512-2.343 2.84-5.019 2.84s-5.023-1.328-5.023-2.84v-9.828c0-1.648 2.707-2.234 5.023-2.234 2.426 0 5.02.586 5.02 2.234M18 23.332v3.336h-1.332V24h-2v2.668h-1.336V24h-2v2.668H10V24H8v2.668H6.668V24h-2A.665.665 0 0 1 4 23.332v-2H1.332V20H4v-2H1.332v-1.332H4v-2H1.332v-1.336H4v-2H1.332V10H4V8H1.332V6.668H4v-2C4 4.297 4.297 4 4.668 4h2V1.332H8V4h2V1.332h1.332V4h2V1.332h1.336V4h2V1.332H18V4h2V1.332h1.332V4h2c.371 0 .668.297.668.668v2h2.668V8H24v2h2.668v1.332H24v2h2.668v1.336h-3.336a.667.667 0 0 1-.664-.668V5.332H5.332v17.336h12c.371 0 .668.297.668.664" fill="rgb(83.137256%, 35.686275%, 2.745098%)" fill-rule="evenodd"/></svg>
